icons/outline/artboard.svg

<!--
category: Design
tags: [graphics, drawing, design, art, canvas]
version: "1.1"
unicode: "ea2a"
-->
<svg
  xmlns="http://www.w3.org/2000/svg"
  width="24"
  height="24"
  viewBox="0 0 24 24"
  fill="none"
  stroke="currentColor"
  stroke-width="2"
  stroke-linecap="round"
  stroke-linejoin="round"
>
  <path d="M8 8m0 1a1 1 0 0 1 1 -1h6a1 1 0 0 1 1 1v6a1 1 0 0 1 -1 1h-6a1 1 0 0 1 -1 -1zm-5 -1l1 0m-1 8l1 0m4 -13l0 1m8 -1l0 1m4 4l1 0m-1 8l1 0m-13 4l0 1m8 -1l0 1" />
</svg>

<!--
category: Design
tags: [graphics, drawing, design, art, canvas]
version: "1.1"
unicode: "ea2a"
-->
<svg
  xmlns="http://www.w3.org/2000/svg"
  width="24"
  height="24"
  viewBox="0 0 24 24"
  fill="none"
  stroke="currentColor"
  stroke-width="2"
  stroke-linecap="round"
  stroke-linejoin="round"
>
    <path d="M8 8m0 1a1 1 0 0 1 1 -1h6a1 1 0 0 1 1 1v6a1 1 0 0 1 -1 1h-6a1 1 0 0 1 -1 -1zM3 8l1 0M3 16l1 0M8 3l0 1M16 3l0 1M20 8l1 0M20 16l1 0M8 20l0 1M16 20l0 1" />
</svg>
